public/logo-full.svg

<svg width="948" height="183" viewBox="0 0 948 183" fill="none" xmlns="http://www.w3.org/2000/svg">
    <g clip-path="url(#clip0_292_120)">
        <path d="M36.21 145.5H72.21L57.41 182.5H21.41L36.21 145.5Z" fill="#0D5FBC"/>
        <path d="M130.41 0L115.72 36.72H79.72L94.41 0H130.41Z" fill="#0D5FBC"/>
        <path d="M123.61 109.5L109.21 145.5H36.21L50.61 109.5L65.32 72.7202H28.56L42.96 36.7202H115.72L101.32 72.7202L86.61 109.5H123.61Z"
              fill="#06D7A0"/>
        <path d="M203.41 0L188.72 36.72L174.32 72.72L159.61 109.5L145.21 145.5L130.41 182.5H94.41L109.21 145.5L123.61 109.5L138.32 72.72H101.32L115.72 36.72H152.72L167.41 0H203.41Z"
              fill="#0D5FBC"/>
        <path d="M225.46 36.7202L211.06 72.7202H174.32L188.72 36.7202H225.46Z" fill="#06D7A0"/>
        <path d="M14.41 109.5H50.61L36.21 145.5H0L14.41 109.5Z" fill="#0D5FBC"/>
        <path d="M196.91 109.5L182.5 145.5H145.21L159.61 109.5H196.91Z" fill="#06D7A0"/>
        <path d="M271.954 129.5V116.474L310.52 68.7285V68.1641H273.288V50.7275H336.829V64.9336L300.622 111.499V112.063H338.162V129.5H271.954Z"
              fill="#06D7A0"/>
        <path d="M388.863 131.038C380.76 131.038 373.794 129.389 367.965 126.09C362.185 122.842 357.499 117.952 354.503 112.038C351.357 105.97 349.784 98.7812 349.784 90.4726C349.623 83.0857 351.241 75.7683 354.503 69.1386C357.482 63.1969 362.1 58.2319 367.811 54.83C373.942 51.3059 380.922 49.5322 387.991 49.7021C392.947 49.6605 397.87 50.5028 402.53 52.1894C406.952 53.801 410.975 56.346 414.325 59.6513C417.832 63.1871 420.52 67.45 422.198 72.1386C424.183 77.7775 425.138 83.7272 425.018 89.704V95.704H358.503V82.1649H404.453C404.51 79.2473 403.803 76.3656 402.402 73.8056C401.072 71.4165 399.112 69.4386 396.735 68.0878C394.174 66.6646 391.28 65.9477 388.35 66.0107C385.265 65.9499 382.222 66.7395 379.555 68.2929C377.058 69.7625 374.997 71.8684 373.58 74.3954C372.132 76.9895 371.372 79.9116 371.375 82.8827V95.7548C371.285 99.2483 372.033 102.713 373.555 105.858C374.924 108.607 377.073 110.891 379.734 112.423C382.636 114.02 385.911 114.817 389.222 114.73C391.485 114.756 393.738 114.409 395.889 113.704C397.821 113.071 399.589 112.021 401.068 110.627C402.529 109.222 403.652 107.504 404.351 105.601L424.557 106.935C423.604 111.641 421.439 116.017 418.275 119.628C414.931 123.36 410.747 126.243 406.069 128.038C400.579 130.131 394.738 131.149 388.863 131.038V131.038Z"
              fill="#06D7A0"/>
        <path d="M450.848 158.886C448.245 158.899 445.645 158.685 443.079 158.245C441.042 157.916 439.041 157.393 437.104 156.681L442.028 140.321C445.891 141.518 449.147 141.834 451.797 141.27C454.446 140.706 456.54 138.646 458.079 135.09L459.362 131.757L431.104 50.7275H454.079L470.387 108.576H471.208L487.67 50.7275L510.799 50.8301L480.183 138.013C478.835 141.994 476.814 145.715 474.208 149.014C471.664 152.166 468.402 154.663 464.695 156.296C460.315 158.13 455.595 159.013 450.848 158.886V158.886Z"
              fill="#06D7A0"/>
        <path d="M542.527 130.987C537.911 131.069 533.331 130.169 529.09 128.346C525.288 126.695 522.053 123.968 519.782 120.5C517.508 117.03 516.372 112.696 516.372 107.499C516.246 103.68 517.074 99.8908 518.782 96.4735C520.33 93.5646 522.588 91.0947 525.347 89.2938C528.257 87.4204 531.453 86.0343 534.809 85.1903C538.469 84.246 542.199 83.5946 545.963 83.242C550.544 82.7635 554.237 82.3104 557.041 81.8826C559.187 81.674 561.265 81.019 563.143 79.9598C563.762 79.5465 564.262 78.9792 564.595 78.3138C564.927 77.6483 565.081 76.9077 565.041 76.1649V75.8573C565.123 74.453 564.892 73.0479 564.364 71.7439C563.837 70.44 563.025 69.2698 561.989 68.3182C559.955 66.5409 557.074 65.6519 553.348 65.6512C549.416 65.6512 546.288 66.5145 543.963 68.241C541.74 69.824 540.114 72.1091 539.347 74.7283L519.142 73.0877C520.072 68.4963 522.154 64.2168 525.193 60.6512C528.36 57.036 532.366 54.2537 536.86 52.5486C542.16 50.5566 547.79 49.5905 553.451 49.702C557.695 49.6859 561.925 50.2026 566.041 51.2401C569.868 52.1817 573.498 53.7967 576.759 56.0096C579.86 58.1339 582.402 60.9751 584.17 64.2919C586.068 68.0288 587.002 72.1805 586.888 76.37V129.5H566.169V118.576H565.554C564.287 121.04 562.564 123.241 560.477 125.063C558.236 126.997 555.64 128.478 552.835 129.423C549.512 130.52 546.027 131.049 542.527 130.987V130.987ZM548.784 115.91C551.736 115.97 554.658 115.31 557.297 113.986C559.656 112.796 561.656 111 563.092 108.781C564.503 106.561 565.234 103.976 565.195 101.346V92.9862C564.322 93.5133 563.382 93.9187 562.4 94.1913C561.22 94.5497 559.896 94.8742 558.425 95.1649C556.955 95.4559 555.485 95.7124 554.015 95.9344C552.545 96.1571 551.211 96.3537 550.015 96.5243C547.708 96.8312 545.449 97.4345 543.297 98.3192C541.547 99.0152 540.009 100.155 538.835 101.627C537.741 103.118 537.181 104.933 537.245 106.781C537.173 108.096 537.433 109.408 538.003 110.596C538.572 111.783 539.431 112.808 540.502 113.576C542.945 115.213 545.845 116.03 548.784 115.91V115.91Z"
              fill="#06D7A0"/>
        <path d="M604.151 129.5V50.7274H625.331V64.4716H626.151C627.588 59.5829 629.998 55.8821 633.383 53.369C636.758 50.8588 640.869 49.5337 645.075 49.5995C646.257 49.6045 647.439 49.673 648.614 49.8046C649.737 49.9171 650.851 50.1057 651.948 50.369V69.7538C650.552 69.373 649.129 69.0988 647.691 68.9335C646.042 68.7061 644.381 68.5861 642.716 68.5741C639.723 68.5202 636.765 69.2354 634.127 70.6513C631.655 71.9959 629.597 73.9911 628.177 76.4208C626.691 79.008 625.937 81.9513 625.998 84.9345V129.5H604.151Z"
              fill="#06D7A0"/>
        <path d="M667.21 130.833C663.948 130.824 660.823 129.524 658.517 127.218C656.21 124.912 654.911 121.787 654.901 118.525C654.88 116.918 655.19 115.324 655.812 113.841C656.434 112.359 657.355 111.02 658.516 109.909C659.652 108.771 661.001 107.868 662.486 107.252C663.971 106.636 665.563 106.319 667.171 106.319C668.778 106.319 670.37 106.636 671.855 107.252C673.34 107.868 674.689 108.771 675.825 109.909C677.788 111.783 679.053 114.27 679.412 116.96C679.771 119.65 679.203 122.382 677.8 124.705C676.688 126.535 675.148 128.066 673.312 129.167C671.471 130.276 669.359 130.853 667.21 130.833Z"
              fill="#0D5FBC"/>
        <path d="M726.73 130.782C720.983 130.85 715.341 129.237 710.499 126.141C705.431 122.777 701.443 118.023 699.011 112.448C696.19 106.414 694.78 99.0036 694.78 90.2168C694.78 81.1904 696.233 73.6771 699.139 67.6768C701.629 62.1546 705.664 57.4706 710.756 54.1895C715.531 51.2154 721.054 49.6592 726.679 49.7022C730.486 49.5753 734.27 50.339 737.73 51.9326C740.482 53.2608 742.928 55.1471 744.911 57.4717C746.587 59.4385 747.992 61.6202 749.091 63.959H749.757V24.4707H771.552V129.5H750.013V116.884H749.091C747.955 119.237 746.496 121.421 744.757 123.371C742.74 125.622 740.277 127.43 737.525 128.68C734.127 130.171 730.44 130.889 726.73 130.782V130.782ZM733.654 113.396C736.882 113.493 740.044 112.469 742.602 110.499C745.194 108.36 747.146 105.547 748.244 102.371C749.634 98.4376 750.303 94.2854 750.218 90.1143C750.306 85.9616 749.645 81.8271 748.269 77.9082C747.187 74.76 745.23 71.9851 742.629 69.9082C740.039 67.9867 736.877 66.9932 733.654 67.0879C730.381 66.9837 727.173 68.0165 724.576 70.0107C721.991 72.1354 720.055 74.9426 718.986 78.1132C717.655 81.9715 717.013 86.0336 717.089 90.1142C717.014 94.2387 717.665 98.3441 719.012 102.243C720.083 105.442 722.017 108.281 724.602 110.448C727.182 112.46 730.385 113.503 733.654 113.396V113.396Z"
              fill="#0D5FBC"/>
        <path d="M825.636 131.038C817.534 131.038 810.568 129.389 804.738 126.09C798.958 122.842 794.273 117.952 791.276 112.038C788.131 105.97 786.558 98.7812 786.558 90.4726C786.397 83.0857 788.015 75.7684 791.276 69.1386C794.256 63.1968 798.874 58.2319 804.585 54.83C810.715 51.3059 817.695 49.5322 824.764 49.7021C829.72 49.6604 834.643 50.5027 839.303 52.1894C843.726 53.8009 847.749 56.3459 851.099 59.6513C854.606 63.1872 857.293 67.45 858.971 72.1386C860.956 77.7775 861.911 83.7272 861.792 89.704V95.704H795.276V82.1649H841.227C841.284 79.2473 840.576 76.3656 839.175 73.8056C837.846 71.4167 835.885 69.4389 833.508 68.0878C830.947 66.6646 828.053 65.9477 825.124 66.0107C822.038 65.9499 818.995 66.7394 816.329 68.2929C813.832 69.7622 811.77 71.8682 810.354 74.3954C808.905 76.9894 808.146 79.9115 808.148 82.8827V95.7548C808.058 99.2483 808.806 102.713 810.328 105.858C811.697 108.607 813.847 110.89 816.507 112.423C819.41 114.02 822.684 114.817 825.996 114.73C828.259 114.756 830.512 114.409 832.663 113.704C834.594 113.071 836.363 112.021 837.842 110.627C839.303 109.222 840.425 107.504 841.125 105.601L861.33 106.935C860.378 111.642 858.212 116.017 855.048 119.628C851.705 123.361 847.521 126.244 842.842 128.038C837.352 130.131 831.511 131.149 825.636 131.038V131.038Z"
              fill="#0D5FBC"/>
        <path d="M947.573 50.7275L920.033 129.5H895.417L867.878 50.7275H890.955L907.315 107.089H908.135L924.444 50.7275H947.573Z"
              fill="#0D5FBC"/>
    </g>
    <defs>
        <clipPath id="clip0_292_120">
            <rect width="947.573" height="182.5" fill="white"/>
        </clipPath>
    </defs>
</svg>

<svg width="948" height="183" viewBox="0 0 948 183" fill="none" xmlns="http://www.w3.org/2000/svg"><g clip-path="url(#a)"><path d="M36.21 145.5h36l-14.8 37h-36l14.8-37ZM130.41 0l-14.69 36.72h-36L94.41 0h36Z" fill="#0D5FBC"/><path d="m123.61 109.5-14.4 36h-73l14.4-36 14.71-36.78H28.56l14.4-36h72.76l-14.4 36-14.71 36.78h37Z" fill="#06D7A0"/><path d="m203.41 0-14.69 36.72-14.4 36-14.71 36.78-14.4 36-14.8 37h-36l14.8-37 14.4-36 14.71-36.78h-37l14.4-36h37L167.41 0h36Z" fill="#0D5FBC"/><path d="m225.46 36.72-14.4 36h-36.74l14.4-36h36.74Z" fill="#06D7A0"/><path d="M14.41 109.5h36.2l-14.4 36H0l14.41-36Z" fill="#0D5FBC"/><path d="m196.91 109.5-14.41 36h-37.29l14.4-36h37.3ZM271.954 129.5v-13.026l38.566-47.746v-.564h-37.232V50.727h63.541v14.207l-36.207 46.565v.564h37.54V129.5h-66.208ZM388.863 131.038c-8.103 0-15.069-1.649-20.898-4.948a33.47 33.47 0 0 1-13.462-14.052c-3.146-6.068-4.719-13.257-4.719-21.565a46.05 46.05 0 0 1 4.719-21.334 34.82 34.82 0 0 1 13.308-14.309 38.631 38.631 0 0 1 20.18-5.128c4.956-.041 9.879.8 14.539 2.487a32.77 32.77 0 0 1 11.795 7.462 34.004 34.004 0 0 1 7.873 12.488 49.884 49.884 0 0 1 2.82 17.565v6h-66.515v-13.54h45.95c.057-2.917-.65-5.798-2.051-8.358a14.927 14.927 0 0 0-5.667-5.718 16.53 16.53 0 0 0-8.385-2.077 16.817 16.817 0 0 0-8.795 2.282 16.37 16.37 0 0 0-5.975 6.102 17.379 17.379 0 0 0-2.205 8.488v12.872a21.9 21.9 0 0 0 2.18 10.103 15.597 15.597 0 0 0 6.179 6.565 18.664 18.664 0 0 0 9.488 2.307 20.648 20.648 0 0 0 6.667-1.026 13.825 13.825 0 0 0 5.179-3.077 13.367 13.367 0 0 0 3.283-5.026l20.206 1.334a27.56 27.56 0 0 1-6.282 12.693 31.58 31.58 0 0 1-12.206 8.41 45.867 45.867 0 0 1-17.206 3ZM450.848 158.886a44.652 44.652 0 0 1-7.769-.641 32.197 32.197 0 0 1-5.975-1.564l4.924-16.36c3.863 1.197 7.119 1.513 9.769.949 2.649-.564 4.743-2.624 6.282-6.18l1.283-3.333-28.258-81.03h22.975l16.308 57.849h.821l16.462-57.848 23.129.102-30.616 87.183a36.776 36.776 0 0 1-5.975 11.001 25.366 25.366 0 0 1-9.513 7.282 33.53 33.53 0 0 1-13.847 2.59ZM542.527 130.987a32.56 32.56 0 0 1-13.437-2.641 21.236 21.236 0 0 1-9.308-7.846c-2.274-3.47-3.41-7.804-3.41-13.001a22.966 22.966 0 0 1 2.41-11.025 19.529 19.529 0 0 1 6.565-7.18 31.815 31.815 0 0 1 9.462-4.104 71.248 71.248 0 0 1 11.154-1.948c4.581-.479 8.274-.932 11.078-1.36a15.466 15.466 0 0 0 6.102-1.922 4.284 4.284 0 0 0 1.898-3.795v-.308a9.486 9.486 0 0 0-3.052-7.539c-2.034-1.777-4.915-2.666-8.641-2.667-3.932 0-7.06.864-9.385 2.59a12.16 12.16 0 0 0-4.616 6.487l-20.205-1.64a27.627 27.627 0 0 1 6.051-12.437 29.354 29.354 0 0 1 11.667-8.102 44.657 44.657 0 0 1 16.591-2.847c4.244-.016 8.474.5 12.59 1.538a33.226 33.226 0 0 1 10.718 4.77 23.356 23.356 0 0 1 7.411 8.282 25.16 25.16 0 0 1 2.718 12.078v53.13h-20.719v-10.924h-.615a21.915 21.915 0 0 1-5.077 6.487 22.877 22.877 0 0 1-7.642 4.36 31.124 31.124 0 0 1-10.308 1.564Zm6.257-15.077c2.952.06 5.874-.6 8.513-1.924a14.89 14.89 0 0 0 5.795-5.205 13.49 13.49 0 0 0 2.103-7.435v-8.36c-.873.527-1.813.933-2.795 1.205-1.18.359-2.504.683-3.975.974-1.47.29-2.94.547-4.41.77-1.47.222-2.804.419-4 .59-2.307.306-4.566.91-6.718 1.794a10.822 10.822 0 0 0-4.462 3.308 8.23 8.23 0 0 0-1.59 5.154 7.828 7.828 0 0 0 3.257 6.795 13.86 13.86 0 0 0 8.282 2.334ZM604.151 129.5V50.727h21.18v13.745h.82c1.437-4.89 3.847-8.59 7.232-11.103a19.092 19.092 0 0 1 11.692-3.77 33.06 33.06 0 0 1 3.539.206c1.123.112 2.237.3 3.334.564v19.385a28.576 28.576 0 0 0-4.257-.82 38.436 38.436 0 0 0-4.975-.36 17.497 17.497 0 0 0-8.589 2.077 15.433 15.433 0 0 0-5.95 5.77 16.42 16.42 0 0 0-2.179 8.513V129.5h-21.847Z" fill="#06D7A0"/><path d="M667.21 130.833a12.342 12.342 0 0 1-12.309-12.308 11.713 11.713 0 0 1 3.615-8.616 12.232 12.232 0 0 1 13.339-2.657 12.232 12.232 0 0 1 3.97 2.657 11.93 11.93 0 0 1 1.975 14.796 13.187 13.187 0 0 1-4.488 4.462 11.616 11.616 0 0 1-6.102 1.666ZM726.73 130.782a29.483 29.483 0 0 1-16.231-4.641 31.597 31.597 0 0 1-11.488-13.693c-2.821-6.034-4.231-13.444-4.231-22.231 0-9.027 1.453-16.54 4.359-22.54a31.4 31.4 0 0 1 11.617-13.488 29.691 29.691 0 0 1 15.923-4.487 24.468 24.468 0 0 1 11.051 2.23 22.018 22.018 0 0 1 7.181 5.54 29.046 29.046 0 0 1 4.18 6.487h.666V24.471h21.795V129.5h-21.539v-12.616h-.922a28.11 28.11 0 0 1-4.334 6.487 21.837 21.837 0 0 1-7.232 5.309 25.067 25.067 0 0 1-10.795 2.102Zm6.924-17.386c3.228.097 6.39-.927 8.948-2.897a18.284 18.284 0 0 0 5.642-8.128 34.667 34.667 0 0 0 1.974-12.257 34.63 34.63 0 0 0-1.949-12.206 17.53 17.53 0 0 0-5.64-8 14.357 14.357 0 0 0-8.975-2.82 14.165 14.165 0 0 0-9.078 2.923 17.882 17.882 0 0 0-5.59 8.102 34.812 34.812 0 0 0-1.897 12.001 35.184 35.184 0 0 0 1.923 12.129 18.276 18.276 0 0 0 5.59 8.205 13.976 13.976 0 0 0 9.052 2.948ZM825.636 131.038c-8.102 0-15.068-1.649-20.898-4.948a33.476 33.476 0 0 1-13.462-14.052c-3.145-6.068-4.718-13.257-4.718-21.565a46.062 46.062 0 0 1 4.718-21.334 34.83 34.83 0 0 1 13.309-14.309 38.625 38.625 0 0 1 20.179-5.128c4.956-.042 9.879.8 14.539 2.487a32.764 32.764 0 0 1 11.796 7.462 34.002 34.002 0 0 1 7.872 12.488 49.908 49.908 0 0 1 2.821 17.565v6h-66.516v-13.54h45.951c.057-2.917-.651-5.798-2.052-8.358a14.923 14.923 0 0 0-5.667-5.718 16.53 16.53 0 0 0-8.384-2.077 16.811 16.811 0 0 0-8.795 2.282 16.359 16.359 0 0 0-5.975 6.102 17.379 17.379 0 0 0-2.206 8.488v12.872a21.9 21.9 0 0 0 2.18 10.103 15.61 15.61 0 0 0 6.179 6.565 18.668 18.668 0 0 0 9.489 2.307 20.648 20.648 0 0 0 6.667-1.026 13.833 13.833 0 0 0 5.179-3.077 13.38 13.38 0 0 0 3.283-5.026l20.205 1.334a27.546 27.546 0 0 1-6.282 12.693 31.544 31.544 0 0 1-12.206 8.41 45.867 45.867 0 0 1-17.206 3ZM947.573 50.727l-27.54 78.773h-24.616l-27.539-78.773h23.077l16.36 56.362h.82l16.309-56.361h23.129Z" fill="#0D5FBC"/></g><defs><clipPath id="a"><path fill="#fff" d="M0 0h947.573v182.5H0z"/></clipPath></defs></svg>
